X:178
T: An der Quelle sa der Knabe (3-16), S. 42f
N: K1153
O: Luxemburg
S: KINTZELE, Guillaume: An der Ucht, Bd. 3 Luxemburg 1928]
N: in der Quelle mit einer 2. Stimme versehen
R: Brautsuche]
M: 4/4
L: 1/16
K: Bb
d2c2 | B6B2B6A2 | A2G2G4z4
G2G2 | F6F2e4A4 | B8z4
d2c2 | B6B2B6A2 | A2G2G4z4
G2G2 | F6F2e4A4 | B8z4
A2B2 | c4c4f6e2 | c2d2B4z4
c2d2 | e3dc4d3c2B3 | c8z4
d2c2 | B6B2B6A2 | A2G2G4z4
G2G2 | F6F2e4A4 | B8z4
A2B2 | c4c4f6e2 | c2d2B4z4
c2d2 | e3dc4d3c2B3 | c8z4
d2c2 | B6B2B6A2 | A2G2G4z4
G2G2 | F6F2e4A4 | B8z4

@@@ Tune index: 8232
